X:62
T: St. Odilien
N: D0065
O: Europa, Mitteleuropa, Lothringen, Woelflingen
N: In Zeile 261 und 263 rhythmisch korrigiert
N: Grundton in der kleinen Oktave
R: Legenden - Lied
M: 3/8
L: 1/16
K: G
d2 | d4d2 | d2d2d2 | g2=f2g2 | d6- | d4
=f2 | =f3ff2 | =f2g2f2 | _e2d2c2 | _B6- | B4
d2 | c2d2_e2 | d4c2 | _B4A2 | G6- | G4

